packages/ui-solid/icons/lightbulb_24.svg

<svg width="24" height="24" viewBox="0 0 24 24" fill="none" xmlns="http://www.w3.org/2000/svg">
<path fill-rule="evenodd" clip-rule="evenodd" d="M18.9433 8.38437C18.9433 10.2654 18.1615 11.9625 16.9171 13.1846C16.8507 13.2499 16.8155 13.3021 16.8001 13.3304C16.7746 15.2539 15.1766 16.7209 13.3159 16.7209H10.6845C8.82383 16.7209 7.22579 15.2539 7.20035 13.3304C7.18489 13.3021 7.14975 13.2499 7.0833 13.1846C5.83886 11.9625 5.05707 10.2654 5.05707 8.38437C5.05707 4.58161 8.21436 1.58586 12.0002 1.58586C15.786 1.58586 18.9433 4.58161 18.9433 8.38437ZM11.1824 20.2997C10.847 20.2727 10.5487 20.1187 10.3386 19.8874C10.1416 19.6705 10.0221 19.3855 10.0221 19.0735C10.0221 18.9036 10.1638 18.7659 10.3386 18.7659H13.6618C13.8366 18.7659 13.9783 18.9036 13.9783 19.0735C13.9783 19.3855 13.8588 19.6705 13.6618 19.8874C13.4517 20.1187 13.1534 20.2727 12.818 20.2997C12.7832 20.3025 12.7479 20.3039 12.7123 20.3039H11.2881C11.2525 20.3039 11.2172 20.3025 11.1824 20.2997ZM10.3386 16.9659H13.6618C14.782 16.9659 15.7783 17.8614 15.7783 19.0735C15.7783 20.7952 14.3569 22.1039 12.7123 22.1039H11.2881C9.64351 22.1039 8.22207 20.7952 8.22207 19.0735C8.22207 17.8615 9.21841 16.9659 10.3386 16.9659ZM15.6559 11.9003C15.2746 12.2747 15.0004 12.757 15.0004 13.2838C15.0004 14.1879 14.2462 14.9209 13.3159 14.9209H10.6845C9.7542 14.9209 9.00004 14.1879 9.00004 13.2838C9.00004 12.757 8.72576 12.2747 8.3445 11.9003C7.42492 10.9973 6.85707 9.75528 6.85707 8.38437C6.85707 5.62377 9.15973 3.38586 12.0002 3.38586C14.8407 3.38586 17.1433 5.62377 17.1433 8.38437C17.1433 9.75528 16.5755 10.9973 15.6559 11.9003Z" fill="#007AFF"/>
</svg>

<svg xmlns="http://www.w3.org/2000/svg" width="24" height="24" fill="none"><path fill="currentColor" fill-rule="evenodd" d="M18.943 8.384a6.7 6.7 0 0 1-2.026 4.8.7.7 0 0 0-.117.146c-.025 1.924-1.623 3.39-3.484 3.39h-2.632c-1.86 0-3.458-1.466-3.484-3.39a.7.7 0 0 0-.117-.145 6.7 6.7 0 0 1-2.026-4.8c0-3.803 3.157-6.8 6.943-6.8s6.943 2.997 6.943 6.8M11.183 20.3a1.28 1.28 0 0 1-.844-.413 1.2 1.2 0 0 1-.317-.814c0-.17.142-.307.317-.307h3.323c.175 0 .316.138.316.308 0 .311-.12.596-.316.813a1.28 1.28 0 0 1-.95.417h-1.424q-.053 0-.106-.004m-.844-3.334h3.323c1.12 0 2.116.895 2.116 2.107 0 1.722-1.421 3.03-3.066 3.03h-1.424c-1.644 0-3.066-1.308-3.066-3.03 0-1.212.996-2.107 2.117-2.107m5.317-5.066c-.381.375-.656.857-.656 1.384 0 .904-.754 1.637-1.684 1.637h-2.632c-.93 0-1.684-.733-1.684-1.637 0-.527-.274-1.01-.655-1.384a4.9 4.9 0 0 1-1.488-3.516c0-2.76 2.303-4.998 5.143-4.998s5.143 2.238 5.143 4.998a4.9 4.9 0 0 1-1.487 3.516" clip-rule="evenodd"/></svg>
